public/logo.svg

<svg width="912" height="242" viewBox="0 0 912 242" fill="none" xmlns="http://www.w3.org/2000/svg">
<path d="M97.4326 47.9718V78.7299H38.8545V189H0.842967V47.9718H97.4326ZM121.282 241.886V47.9718H159.844V71.6601H161.589C163.302 67.8651 165.781 64.0088 169.026 60.0914C172.331 56.1127 176.616 52.8074 181.88 50.1754C187.205 47.4821 193.816 46.1355 201.712 46.1355C211.995 46.1355 221.483 48.8287 230.174 54.2152C238.866 59.5405 245.814 67.5896 251.017 78.3626C256.219 89.0744 258.821 102.51 258.821 118.67C258.821 134.401 256.281 147.683 251.2 158.517C246.181 169.29 239.325 177.462 230.634 183.032C222.003 188.541 212.332 191.295 201.62 191.295C194.03 191.295 187.572 190.041 182.247 187.531C176.983 185.021 172.668 181.869 169.301 178.074C165.934 174.218 163.364 170.331 161.589 166.413H160.395V241.886H121.282ZM159.569 118.486C159.569 126.872 160.732 134.186 163.058 140.43C165.384 146.673 168.75 151.539 173.157 155.028C177.564 158.456 182.92 160.17 189.225 160.17C195.591 160.17 200.977 158.426 205.384 154.937C209.792 151.386 213.127 146.49 215.392 140.246C217.718 133.941 218.881 126.688 218.881 118.486C218.881 110.345 217.749 103.183 215.484 97.0011C213.219 90.8189 209.883 85.9833 205.476 82.4943C201.069 79.0053 195.652 77.2608 189.225 77.2608C182.859 77.2608 177.473 78.9441 173.065 82.3107C168.719 85.6772 165.384 90.4516 163.058 96.6339C160.732 102.816 159.569 110.1 159.569 118.486ZM325.111 191.663C316.114 191.663 308.095 190.102 301.056 186.98C294.017 183.797 288.447 179.115 284.345 172.932C280.306 166.689 278.286 158.915 278.286 149.611C278.286 141.776 279.724 135.196 282.601 129.871C285.478 124.546 289.395 120.261 294.353 117.017C299.311 113.773 304.943 111.324 311.247 109.672C317.613 108.019 324.285 106.856 331.263 106.183C339.465 105.326 346.076 104.53 351.095 103.795C356.114 103 359.756 101.837 362.021 100.306C364.286 98.7762 365.418 96.5114 365.418 93.5121V92.9613C365.418 87.1463 363.582 82.6473 359.909 79.4644C356.298 76.2815 351.156 74.69 344.484 74.69C337.445 74.69 331.845 76.2509 327.682 79.3726C323.52 82.4331 320.766 86.2893 319.419 90.9413L283.244 88.0032C285.08 79.4338 288.691 72.0274 294.078 65.7839C299.464 59.4793 306.412 54.6437 314.92 51.2771C323.489 47.8494 333.405 46.1355 344.668 46.1355C352.503 46.1355 360.001 47.0536 367.163 48.8899C374.386 50.7262 380.782 53.5725 386.352 57.4287C391.984 61.285 396.421 66.243 399.665 72.3028C402.91 78.3014 404.532 85.4936 404.532 93.8794V189H367.438V169.443H366.336C364.072 173.85 361.042 177.737 357.247 181.104C353.452 184.409 348.892 187.011 343.566 188.908C338.241 190.744 332.089 191.663 325.111 191.663ZM336.313 164.669C342.067 164.669 347.147 163.537 351.554 161.272C355.961 158.946 359.42 155.824 361.929 151.907C364.439 147.989 365.694 143.551 365.694 138.593V123.628C364.47 124.423 362.786 125.158 360.644 125.831C358.563 126.443 356.206 127.025 353.574 127.576C350.942 128.065 348.31 128.524 345.678 128.953C343.046 129.32 340.659 129.657 338.516 129.963C333.926 130.636 329.916 131.707 326.489 133.176C323.061 134.645 320.398 136.635 318.501 139.144C316.603 141.593 315.654 144.653 315.654 148.326C315.654 153.651 317.583 157.722 321.439 160.537C325.356 163.292 330.314 164.669 336.313 164.669ZM502.361 236.928V0.962375H541.382V236.928H502.361ZM502.361 191.754C491.527 191.754 481.641 190.01 472.704 186.521C463.768 182.971 456.055 177.982 449.567 171.555C443.079 165.067 438.059 157.385 434.509 148.509C430.959 139.573 429.184 129.749 429.184 119.037C429.184 108.203 430.959 98.3477 434.509 89.4723C438.059 80.5356 443.079 72.8537 449.567 66.4266C456.055 59.9384 463.768 54.9497 472.704 51.4608C481.641 47.9106 491.527 46.1355 502.361 46.1355H509.614V191.754H502.361ZM502.361 161.272H506.676V76.6181H502.361C497.097 76.6181 492.414 77.7199 488.313 79.9235C484.212 82.1271 480.754 85.157 477.938 89.0132C475.122 92.8082 472.98 97.2766 471.511 102.418C470.103 107.56 469.399 113.099 469.399 119.037C469.399 126.872 470.685 134.003 473.255 140.43C475.826 146.796 479.591 151.876 484.549 155.671C489.507 159.405 495.444 161.272 502.361 161.272ZM541.382 191.754H534.129V46.1355H541.382C552.216 46.1355 562.102 47.9106 571.039 51.4608C579.975 54.9497 587.688 59.9384 594.176 66.4266C600.664 72.8537 605.684 80.5356 609.234 89.4723C612.784 98.3477 614.559 108.203 614.559 119.037C614.559 129.749 612.784 139.573 609.234 148.509C605.684 157.385 600.664 165.067 594.176 171.555C587.688 177.982 579.975 182.971 571.039 186.521C562.102 190.01 552.216 191.754 541.382 191.754ZM541.382 161.272C546.646 161.272 551.329 160.201 555.43 158.058C559.531 155.855 562.989 152.825 565.805 148.969C568.621 145.112 570.763 140.644 572.232 135.564C573.701 130.422 574.436 124.913 574.436 119.037C574.436 111.141 573.12 104.01 570.488 97.6438C567.917 91.2168 564.183 86.1057 559.286 82.3107C554.389 78.5157 548.421 76.6181 541.382 76.6181H537.067V161.272H541.382ZM677.521 137.4L728.295 47.9718H766.858V189H729.581V99.2965L678.99 189H640.152V47.9718H677.521V137.4ZM784.05 78.7299V47.9718H911.857V78.7299H866.408V189H829.131V78.7299H784.05Z" fill="black"/>
</svg>

<svg xmlns="http://www.w3.org/2000/svg" width="912" height="242" fill="none"><path fill="#fff" d="M97.433 47.972V78.73H38.854V189H.843V47.972h96.59Zm23.849 193.914V47.972h38.562V71.66h1.745c1.713-3.795 4.192-7.651 7.437-11.569 3.305-3.978 7.59-7.284 12.854-9.916 5.325-2.693 11.936-4.04 19.832-4.04 10.283 0 19.771 2.694 28.462 8.08 8.692 5.325 15.64 13.375 20.843 24.148 5.202 10.711 7.804 24.147 7.804 40.307 0 15.731-2.54 29.013-7.621 39.847-5.019 10.773-11.875 18.945-20.566 24.515-8.631 5.509-18.302 8.263-29.014 8.263-7.59 0-14.048-1.254-19.373-3.764-5.264-2.51-9.579-5.662-12.946-9.457-3.367-3.856-5.937-7.743-7.712-11.661h-1.194v75.473h-39.113Zm38.287-123.4c0 8.386 1.163 15.7 3.489 21.944 2.326 6.243 5.692 11.109 10.099 14.598 4.407 3.428 9.763 5.142 16.068 5.142 6.366 0 11.752-1.744 16.159-5.233 4.408-3.551 7.743-8.447 10.008-14.691 2.326-6.305 3.489-13.558 3.489-21.76 0-8.141-1.132-15.303-3.397-21.485-2.265-6.182-5.601-11.018-10.008-14.507-4.407-3.489-9.824-5.233-16.251-5.233-6.366 0-11.752 1.683-16.16 5.05-4.346 3.366-7.681 8.14-10.007 14.323-2.326 6.182-3.489 13.466-3.489 21.852Zm165.542 73.177c-8.997 0-17.016-1.561-24.055-4.683-7.039-3.183-12.609-7.865-16.711-14.048-4.039-6.243-6.059-14.017-6.059-23.321 0-7.835 1.438-14.415 4.315-19.74 2.877-5.325 6.794-9.61 11.752-12.854 4.958-3.244 10.59-5.693 16.894-7.345 6.366-1.653 13.038-2.816 20.016-3.489 8.202-.857 14.813-1.653 19.832-2.388 5.019-.795 8.661-1.958 10.926-3.489 2.265-1.53 3.397-3.795 3.397-6.794v-.55c0-5.816-1.836-10.315-5.509-13.498-3.611-3.183-8.753-4.774-15.425-4.774-7.039 0-12.639 1.56-16.802 4.683-4.162 3.06-6.916 6.916-8.263 11.568l-36.175-2.938c1.836-8.57 5.447-15.976 10.834-22.22 5.386-6.304 12.334-11.14 20.842-14.506 8.569-3.428 18.485-5.142 29.748-5.142 7.835 0 15.333.919 22.495 2.755 7.223 1.836 13.619 4.682 19.189 8.539 5.632 3.856 10.069 8.814 13.313 14.874 3.245 5.998 4.867 13.19 4.867 21.576V189h-37.094v-19.557h-1.102c-2.264 4.407-5.294 8.294-9.089 11.661-3.795 3.305-8.355 5.907-13.681 7.804-5.325 1.836-11.477 2.755-18.455 2.755Zm11.202-26.994c5.754 0 10.834-1.132 15.241-3.397 4.407-2.326 7.866-5.448 10.375-9.365 2.51-3.918 3.765-8.356 3.765-13.314v-14.965c-1.224.795-2.908 1.53-5.05 2.203-2.081.612-4.438 1.194-7.07 1.745-2.632.489-5.264.948-7.896 1.377-2.632.367-5.019.704-7.162 1.01-4.59.673-8.6 1.744-12.027 3.213-3.428 1.469-6.091 3.459-7.988 5.968-1.898 2.449-2.847 5.509-2.847 9.182 0 5.325 1.929 9.396 5.785 12.211 3.917 2.755 8.875 4.132 14.874 4.132Zm166.048 72.259V.962h39.021v235.966h-39.021Zm0-45.174c-10.834 0-20.72-1.744-29.657-5.233-8.936-3.55-16.649-8.539-23.137-14.966-6.488-6.488-11.508-14.17-15.058-23.046-3.55-8.936-5.325-18.76-5.325-29.472 0-10.834 1.775-20.69 5.325-29.565 3.55-8.936 8.57-16.618 15.058-23.045 6.488-6.489 14.201-11.477 23.137-14.966 8.937-3.55 18.823-5.325 29.657-5.325h7.253v145.618h-7.253Zm0-30.482h4.315V76.618h-4.315c-5.264 0-9.947 1.102-14.048 3.306-4.101 2.203-7.559 5.233-10.375 9.09-2.816 3.794-4.958 8.263-6.427 13.404-1.408 5.142-2.112 10.681-2.112 16.619 0 7.835 1.286 14.966 3.856 21.393 2.571 6.366 6.336 11.446 11.294 15.241 4.958 3.734 10.895 5.601 17.812 5.601Zm39.021 30.482h-7.253V46.136h7.253c10.834 0 20.72 1.775 29.657 5.325 8.936 3.489 16.649 8.477 23.137 14.966 6.488 6.427 11.508 14.109 15.058 23.045 3.55 8.876 5.325 18.731 5.325 29.565 0 10.712-1.775 20.536-5.325 29.472-3.55 8.876-8.57 16.558-15.058 23.046-6.488 6.427-14.201 11.416-23.137 14.966-8.937 3.489-18.823 5.233-29.657 5.233Zm0-30.482c5.264 0 9.947-1.071 14.048-3.214 4.101-2.203 7.559-5.233 10.375-9.089 2.816-3.857 4.958-8.325 6.427-13.405 1.469-5.142 2.204-10.651 2.204-16.527 0-7.896-1.316-15.027-3.948-21.393-2.571-6.427-6.305-11.538-11.202-15.333s-10.865-5.693-17.904-5.693h-4.315v84.654h4.315ZM677.521 137.4l50.774-89.428h38.563V189h-37.277V99.296L678.99 189h-38.838V47.972h37.369V137.4ZM784.05 78.73V47.972h127.807V78.73h-45.449V189h-37.277V78.73H784.05Z"/></svg>
